X: 6
T:Second Morris, Badby
M:4/4
L:1/8
A:Badby
P:A(AB)4A
K:G
P:A
|:D2|G2G2 A2Bc|dBcA BGED|G2G2 A2Bc|dcBA G2:|
P:B
d2|g2gg f2f2|e2fg afd2|g2gg f2f2|e2f2 g4 |
g2gg f2f2|e2fg afd2|g2BB c2e2|dcBA G2 |
